src/lib/packages/icons/src/assets/line/arrow-down-arrow-up.svg

<svg width="24" height="24" viewBox="0 0 24 24" fill="none" xmlns="http://www.w3.org/2000/svg">
<path d="M21.5301 7.53014C21.3841 7.67614 21.192 7.75012 21 7.75012C20.808 7.75012 20.616 7.67714 20.47 7.53014L17.75 4.81017V17.0001C17.75 17.4141 17.414 17.7501 17 17.7501C16.586 17.7501 16.25 17.4141 16.25 17.0001V4.81115L13.5301 7.53112C13.2371 7.82412 12.762 7.82412 12.469 7.53112C12.176 7.23812 12.176 6.76309 12.469 6.47009L16.469 2.47009C16.538 2.40109 16.6209 2.34622 16.7129 2.30822C16.8959 2.23222 17.1029 2.23222 17.2859 2.30822C17.3779 2.34622 17.4611 2.40109 17.5301 2.47009L21.5301 6.47009C21.8231 6.76309 21.8231 7.23714 21.5301 7.53014ZM10.47 16.4701L7.75002 19.1901V7.00012C7.75002 6.58612 7.41402 6.25012 7.00002 6.25012C6.58602 6.25012 6.25002 6.58612 6.25002 7.00012V19.1891L3.53005 16.4691C3.23705 16.1761 2.76202 16.1761 2.46902 16.4691C2.17602 16.7621 2.17602 17.2371 2.46902 17.5301L6.46902 21.5301C6.53802 21.5991 6.62094 21.654 6.71194 21.692C6.80294 21.73 6.90105 21.7501 6.99905 21.7501C7.09705 21.7501 7.19391 21.73 7.28591 21.692C7.37791 21.654 7.46008 21.5991 7.52908 21.5301L11.5291 17.5301C11.8221 17.2371 11.8221 16.7621 11.5291 16.4691C11.2361 16.1761 10.763 16.1771 10.47 16.4701Z" fill="currentColor"/>
</svg>

<svg xmlns="http://www.w3.org/2000/svg" width="24" height="24" fill="none"><path fill="currentColor" d="M21.53 7.53a.748.748 0 0 1-1.06 0l-2.72-2.72V17a.75.75 0 0 1-1.5 0V4.811l-2.72 2.72a.75.75 0 0 1-1.061-1.06l4-4a.748.748 0 0 1 .817-.163.75.75 0 0 1 .244.162l4 4a.75.75 0 0 1 0 1.06Zm-11.06 8.94-2.72 2.72V7a.75.75 0 0 0-1.5 0v12.19l-2.72-2.72a.75.75 0 0 0-1.061 1.06l4 4a.755.755 0 0 0 .817.162.745.745 0 0 0 .243-.162l4-4a.75.75 0 0 0-1.059-1.06Z"/></svg>
